dist/img/social-telegram.svg

<svg width="24" height="20" viewBox="0 0 24 20" fill="none" xmlns="http://www.w3.org/2000/svg">
<path d="M2.15169 10.6187L2.15279 10.6191L2.07753 8.00093C1.56917 8.19494 1.27036 8.44161 1.10055 8.68869C0.930538 8.93607 0.895657 9.17543 0.90041 9.3441C0.905163 9.5128 0.953537 9.74982 1.13729 9.98721C1.32082 10.2243 1.63314 10.4537 2.15169 10.6187ZM20.7 0.892155L2.07754 8.00093L2.20014 10.5288L2.17262 10.6249L2.17293 10.625C2.17308 10.6251 2.17323 10.6251 2.17337 10.6252L5.98565 11.7161L8.05757 17.6409L8.15197 17.6079L8.05757 17.6409C8.35352 18.4871 9.02541 19.0282 9.82069 19.0282C10.3195 19.0282 10.8045 18.8189 11.2238 18.4331L11.2238 18.4331L13.5497 16.2914L16.9472 19.0271C16.9489 19.0285 16.9504 19.0296 16.9517 19.0306L16.9822 19.0552L16.9822 19.0552L16.9836 19.0563L16.9879 19.0597L16.9928 19.0635L16.9929 19.0636C17.3923 19.3733 17.8337 19.5411 18.2705 19.5413H18.2706H18.2707C19.1313 19.5413 19.803 18.9026 19.9964 17.948L23.0476 2.88143C23.1744 2.25573 23.0707 1.68156 22.7377 1.27441C22.4481 0.920278 22.016 0.728125 21.5268 0.728125C21.2615 0.728125 20.9832 0.783919 20.7001 0.89214C20.7001 0.892145 20.7 0.89215 20.7 0.892155ZM13.9791 14.7253L11.7299 12.9142L18.3666 5.86222C18.6147 5.59854 18.6372 5.19466 18.4199 4.90502L18.4199 4.90498C18.2023 4.61535 17.8082 4.52419 17.4857 4.689C17.4857 4.689 17.4857 4.68901 17.4857 4.68901L6.48359 10.3097L2.89465 9.28288L21.2311 2.28329L21.2312 2.28328C21.3781 2.22712 21.4758 2.21718 21.5268 2.21718C21.5436 2.21718 21.5635 2.21827 21.5799 2.22157C21.5833 2.22226 21.5861 2.22295 21.5883 2.22358C21.5933 2.23439 21.6028 2.25998 21.6081 2.30647C21.6151 2.36852 21.6136 2.46034 21.5882 2.58577C21.5882 2.58578 21.5882 2.58579 21.5882 2.5858L18.537 17.6524C18.523 17.721 18.4947 17.8289 18.445 17.9173C18.3942 18.0076 18.3368 18.052 18.2706 18.052C18.1837 18.052 18.0558 18.0024 17.9103 17.8905C17.91 17.8903 17.9097 17.8901 17.9095 17.8899L13.9859 14.7307C13.9838 14.7288 13.9815 14.7271 13.9791 14.7253ZM21.5848 2.21696L21.5851 2.21732L21.5848 2.21696ZM7.4784 11.4736L14.3397 7.96839L10.0945 12.4793C10.0945 12.4793 10.0945 12.4793 10.0945 12.4793C10.0067 12.5725 9.94443 12.6867 9.91378 12.811C9.91377 12.8111 9.91377 12.8111 9.91377 12.8111L9.09953 16.1093L7.4784 11.4736ZM10.3638 17.2006L11.0794 14.3022L12.3769 15.347L10.3638 17.2006Z" fill="#6D6F7F" stroke="#6D6F7F" stroke-width="0.2"/>
</svg>

<svg width="24" height="20" viewBox="0 0 24 20" fill="none" xmlns="http://www.w3.org/2000/svg"><path d="M2.152 10.619h0l-.074-2.618c-.509.194-.808.44-.977.688-.17.247-.205.486-.2.655.004.169.053.406.236.643.184.237.496.467 1.015.632zM20.7.892L2.078 8.001l.122 2.528-.027.096h0s0 0 0 0l3.813 1.091 2.072 5.925.094-.033-.094.033c.296.846.967 1.387 1.763 1.387.498 0 .984-.21 1.403-.595h0l2.326-2.142 3.397 2.736.005.004.03.024h0l.002.001.004.004.005.004h0c.4.31.84.477 1.277.477h0c.861 0 1.533-.638 1.726-1.593l3.052-15.067c.126-.625.023-1.2-.31-1.607-.29-.354-.722-.546-1.211-.546a2.33 2.33 0 00-.827.164s0 0 0 0zm-6.72 13.833l-2.25-1.81 6.637-7.053a.745.745 0 00.053-.957h0a.745.745 0 00-.934-.216s0 0 0 0l-11.002 5.62-3.59-1.026 18.337-7h0a.848.848 0 01.296-.066.286.286 0 01.061.007c.005.01.015.036.02.082a.916.916 0 01-.02.28s0 0 0 0l-3.051 15.066a.961.961 0 01-.092.265c-.05.09-.108.135-.174.135-.087 0-.215-.05-.36-.162h-.002l-3.923-3.16-.007-.005zm7.605-12.508h0zM7.478 11.474l6.862-3.506-4.245 4.511s0 0 0 0a.743.743 0 00-.181.332s0 0 0 0L9.1 16.11l-1.622-4.635zm2.886 5.727l.715-2.899 1.298 1.045-2.013 1.854z" fill="#6D6F7F" stroke="#6D6F7F" stroke-width=".2"/></svg>
